X:1
T:L\"andler
T:L\"andler
T:Franz Schubert
C:Franz Schubert
%%score 1 2
L:1/8
M:3/4
K:Bb
V:1 treble 
V:2 bass 
V:1
 Bc | B2 de f2 |{e} .g2 A2 fg | f2 ab c'2 |{b} .d'2 b2 Bc | B2 de f2 |{e} .g2 A2 fg | f2 abc'd' | %8
 b4 :: fg | fF[Ae]F[Ae]F | eF[Bd]F[Bd]F | dF[Ac]F[Ac]F | Bcdefg | fF[Ae]F[Ae]F | eF[Bd]F[Bd]F | %16
 dc=BcfA | _B4 :| %18
V:2
 z2 | B,2 [DF]2 [DF]2 | F,2 [CEF]2 [CEF]2 | F,2 [CEF]2 [CEF]2 | B,2 [DF]2 [DF]2 | B,2 [DF]2 [DF]2 | %6
 F,2 [CEF]2 [CEF]2 | F,2 [CEF]2 [CEF]2 | [B,DF]4 :: z2 | [F,,F,]2 [F,C]2 [F,C]2 | %11
 [B,,B,]2 [B,D]2 [B,D]2 | [F,,F,]2 [F,E]2 [F,E]2 | [B,D]2 [B,D]2 z2 | [F,,F,]2 [F,C]2 [F,C]2 | %15
 [B,,B,]2 [B,D]2 [B,D]2 | [F,,F,]2 [F,CE]2 [E,F,C]2 | [B,D]4 :| %18

